!!!COM: Bach, Johann Sebastian
!!!OTL: 124. Auf, auf, mein Herz, und du mein ganzer Sinn
!!!ONM: No. 124
!!!OCL: Erk
!!!SCA: BWV 268
!!!YOE: Riemenschneider, Albert
!!!OPR: 371 Harmonized Chorales and 69 Chorale Melodies with Figured Bass
!!!OPT: Bach Chorale Harmonizations
**harm	**root	**kern	**kern	**kern	**kern
!	!	!bass	!tenor	!alto	!sprno
*Iorgan	*Iorgan	*Iorgan	*Iorgan	*Iorgan	*Iorgan
*k[f#c#g#d#a#e#b#]	*k[f#c#g#d#a#e#b#]	*k[f#c#g#d#a#e#b#]	*k[f#c#g#d#a#e#b#]	*k[f#c#g#d#a#e#b#]	*k[f#c#g#d#a#e#b#]
*C#:	*C#:	*C#:	*C#:	*C#:	*C#:
*met(c)	*met(c)	*met(c)	*met(c)	*met(c)	*met(c)
*M4/4	*M4/4	*M4/4	*M4/4	*M4/4	*M4/4
*MM60	*MM60	*MM60	*MM60	*MM60	*MM60
I	4GG	8c#	4g#	4cc#	4ee#
.	.	8B#	.	.	.
=1	=1	=1	=1	=1	=1
I	8GG	4c#	8g#	8cc#	4ee#
vib	8EE	.	8a#	8a#	.
Vb/vi	4BB	4G##	4b#	8ee#	4ee#
.	.	.	.	8dd#	.
vi;	4EE;	4A#;	4a#;	4cc#;	4ee#;
iib	4AA	4F#	4a#	8dd#	4aa#
.	.	.	.	8cc#	.
=2	=2	=2	=2	=2	=2
V7d	4.DD	4.F#	8d#	8b#	4gg#
.	.	.	8c#	8a#	.
.	.	.	8d#	8b#	4gg#
viib/ii	8GG#	8E#	8e#	8cc##	.
ii	4AA	8D#	8f#	4dd#	4ff#
.	.	8C##	8e#	.	.
ii	4AA	4D#	4d#	8a#	4ff#
.	.	.	.	8b#	.
=3	=3	=3	=3	=3	=3
I;	4GG;	4C#;	4g#;	4cc#;	4ee#;
I	4GG	4c#	4e#	4g#	4cc#
Vb	4DD	8B#	4d#	8g#	4dd#
.	.	8A#	.	8a#	.
V	4DD	4G#	8g#	8b#	4dd#
.	.	.	8f#	8a#	.
=4	=4	=4	=4	=4	=4
I	4GG	8c#	8e#	4g#	4ee#
.	.	8B#	8d#	.	.
IVb	4CC	4A#	4c#	8cc#	4ff#
.	.	.	.	8a#	.
V	8DD	4G#	8d#	8b#	8gg#
V7	8DD	.	8B#	8dd#	8ff#
vi	8EE	8A#	8c#	[4cc#	4ee#
Ic	8GG	8G#	8e#	.	.
=5	=5	=5	=5	=5	=5
ii7b	8AA	8F#	8a#	8cc#]	4dd#
ii	8AA	8D#	8f#	16b#	.
.	.	.	.	16a#	.
V	4DD	4G#	8d#	4b#	4dd#
.	.	.	16g#	.	.
.	.	.	16f#	.	.
I;	4GG;	4C#;	4e#;	4g#;	4cc#;
V7d/V	4AA	4c#	4f##	4a#	4dd#
=6	=6	=6	=6	=6	=6
!!linebreak: 2
Vb	8DD	8B#	8g#	8b#	4dd#
V7c/V	8AA	8A#	8f##	8cc#	.
V	8DD	8G#	8g#	8b#	4dd#
Vb/V	8AA	8F##	8a#	8a#	.
V;	4DD;	4G#;	4g#;	4b#;	4dd#;
Vb/vi	4BB	4G##	4e#	[4b#	8ee#
.	.	.	.	.	8dd#
=7	=7	=7	=7	=7	=7
vi	4EE	8A#	4e#	4b#]	4cc#
.	.	8B#	.	.	.
vib	4EE	8c#	4e#	[4a#	4cc#
.	.	8A#	.	.	.
Vb	8DD	8F##	8d#	8a#]	4dd#
viio/vi	8DD#	8G##	8B#	8b#	.
vi	8EE	8A#	4c#	8e#	4cc#
IV	8CC	8F#	.	[8a#	.
=8	=8	=8	=8	=8	=8
viio7b	4FF#	4D#	4f#	8a#]	2b#
.	.	.	.	8g##	.
V7b/V/vi	4FF#	4D##	4f##	8a#	.
.	.	.	.	8f##	.
V/vi;	4BB;	4E#;	4e#;	4g##;	4b#;
Vb/vi	4BB	4G##	8e#	4e#	4b#
.	.	.	8d#	.	.
=9	=9	=9	=9	=9	=9
vi	8EE	8A#	8c#	4e#	4cc#
V7c/IV	8GG	8G#	8B#	.	.
IV	8CC	8F#	8c#	8a#	4cc#
Ib	8GG	8E#	8e#	8g#	.
ii	4AA	8D#	[4f#	8a#	4dd#
.	.	8C#	.	16b#	.
.	.	.	.	16cc#	.
viio	8FF#	8BB#	8f#]	8dd#	4dd#
V	8DD	8GG#	16g#	8b#	.
.	.	.	16f#	.	.
=10	=10	=10	=10	=10	=10
I	4GG	8C#	[4e#	8g#	4ee#
.	.	8c#	.	16a#	.
.	.	.	.	16b#	.
IV7b	8CC	8A#	8e#]	8cc#	4ff#
viiob	8FF#	8d#	16d#	16b#	.
.	.	.	16c#	16a#	.
Vb	8DD	8B#	8d#	8b#	8gg#
V7	8DD	8G#	8b#	4dd#	8ff#
I	8GG	8c#	8g#	.	4ee#
vi	8EE	8A#	8a#	8cc#	.
=11	=11	=11	=11	=11	=11
ii7b	4AA	8F#	8a#	4cc#	2dd#
.	.	8D#	8f#	.	.
V	4DD	4G#	8d#	4b#	.
.	.	.	16g#	.	.
.	.	.	16f#	.	.
I;	4GG;	4C#;	4e#;	4g#;	4cc#;
==	==	==	==	==	==
*-	*-	*-	*-	*-	*-
!!!CDT: 1685/3//-1750/7/28
!!!OCY: Deutschland
!!!AGN: chorale
!!!AST: Baroque
!!!AIN: vox
!!!YOY: 1941
!!!PPP: New York; London
!!!PPR: G. Schirmer
!!!ENC: David Huron
!!!EED: David Huron
!!!YEN: United States of America
!!!YER: 1992
!!!YEC: Copyright 1992 David Huron
!!!YEM: Rights to all derivative electronic formats reserved.
!!!YER: March 20, 1996
!!!AMT: simple quadruple
!!!EEV: 1.1
!!chor2scor: -l 2 -s 0.6 -o %b.pmx
